X:230
T: Cailleach o Thuaidh
S: "First Collection of Traditional Irish Music" (M.Mulvihill)
Z: B.Black
L: 1/8
M: 9/8
R: slip jig
K: D
ABd efe edB|AFA faf e2 d|ABd efe edB|ABc dAF E2 D :|
FED FAD FAD|FED FAF E2 D|FED FAD FAD|ABc dAF E2 D :|
